X:1
T:Title
%%score { ( 1 4 ) | ( 2 3 ) }
L:1/8
Q:1/4=100
M:6/8
K:Bb
V:1 treble nm="Grand Piano"
V:4 treble 
V:2 bass 
V:3 bass 
V:1
 [DF]2 [DF] [DF]ED | [DF]2 [DF] [DF]3 | [DB]BB [Dc]2 [DB] | [EB]3 .[EA]3 | [CE]2 [CE] [CE]DC | %5
w: R.~Frank~Lehman * * * *|||||
 [CE]2 [CE] [CE]3 | [EA]AA [Ec]2 [EA] | [_DG]3 .[=DF]3 | [Fd]2 [Fd] [Fd][Ge][Fd] | %9
w: ||||
 [DB]2 [EG] [DF]3 | FB[Ec] [Fd][Ff][Ge] | [Fd]3 .[Fc]3 | [Fd]2 [Fd] [Fd][Ff][Fe] | %13
w: ||||
 [Fd]2 [^Fc] [GB]2 G | F=EF d2 c | c3 .[DB]3 |] %16
w: |||
V:2
 [B,,F,]3 z CB, | [B,,F,]3 [F,,F,]3 | z DD [F,,F,]3 | [C,F,]3 .[F,,F,]3 | [A,,F,]3 z B,A, | %5
 [A,,F,]3 [F,,F,]3 | z EE [F,,F,]3 | [B,,=E,]3 .[B,,F,]3 | [B,,B,]2 [B,,B,] [B,,B,][B,,B,][B,,B,] | %9
 [B,,F,]2 [B,,B,] [B,,B,]3 | [B,,B,]2 [B,,B,] [B,,B,][D,B,][E,B,] | [F,B,]3 .[F,A,]3 | %12
 [B,,B,]2 [B,,B,] [B,,B,][D,B,][C,A,] | [B,,B,]2 [D,A,] G,2 [B,E] | %14
 [F,B,D][F,B,_D][F,B,=D] [F,B,F]2 [F,A,E] | [F,A,E]3 .[B,,B,]3 |] %16
V:3
 z3 [F,,F,]3 | x6 | [B,,F,]3 z3 | x6 | z3 [F,,F,]3 | x6 | [C,F,]3 z3 | x6 | x6 | x6 | x6 | x6 | %12
 x6 | z3 E,3 | x6 | x6 |] %16
V:4
 x6 | x6 | x6 | x6 | x6 | x6 | x6 | x6 | x6 | x6 | .D3 z3 | x6 | x6 | x6 | x6 | x6 |] %16

